X:430
T:Tallahassee
C:Bill Monroe
N:Transcribed by Teri LaMarco
R:bluegrass
L:1/8
Q:1/4=200
M:4/4
K:A
z6 d[ee] |: e2 ef ed cd | Ac ca a2 cd | [e2A2] ef ed cB | [A=G][AA] AA dA cA | 
BA G2 GD FD | E2 ED EG GA | A2 A,A, A,C EG |1 A2 AA A2 cd :|2 A2 AA A3G, |: A,A, A,A, A,A, A,A, | 
=C^C CC CC CC | EE EE EE EE | [A=G][AA] [AA][AA] [AA][AA] [AA][AA] | =c^c cc ce cB | 
A2 E2 FE F=G | [AA][AA] [AA][AA] [AA]A A2 | [AG][AA] [AA][AA] [AA]A A2 :| dA cA B2 A2 | 
GD ED FD GA | [A2A2] [AA][AA] [AA][AA] [AA]A | A2 AA2A Bc | dd c2 B2 A2 | G2 E2 F2 G2 | 
[AG][AA] [AA][AA] A2 A2 | 


